images/PLAY.svg

<svg width="25" height="25" viewBox="0 0 25 25" fill="none" xmlns="http://www.w3.org/2000/svg">
<path d="M12.5 0C5.60708 0 0 5.60762 0 12.5C0 19.3924 5.60708 25 12.5 25C19.3929 25 25 19.3924 25 12.5C25 5.60762 19.3929 0 12.5 0ZM12.5 23.9583C6.18184 23.9583 1.04165 18.8182 1.04165 12.5C1.04165 6.18184 6.18184 1.04165 12.5 1.04165C18.8182 1.04165 23.9583 6.18184 23.9583 12.5C23.9583 18.8182 18.8182 23.9583 12.5 23.9583Z" fill="#FEFEFE"/>
<path d="M17.4693 12.062L10.1776 7.37451C10.0179 7.27026 9.81143 7.26465 9.64663 7.35518C9.47876 7.44673 9.375 7.62173 9.375 7.81245V17.1874C9.375 17.3782 9.47876 17.5532 9.64663 17.6447C9.72393 17.687 9.8104 17.7083 9.89585 17.7083C9.99351 17.7083 10.0922 17.6808 10.1776 17.6254L17.4693 12.9379C17.6178 12.8423 17.7083 12.677 17.7083 12.5C17.7083 12.3229 17.6178 12.1577 17.4693 12.062ZM10.4167 16.2332V8.76665L16.2242 12.5L10.4167 16.2332Z" fill="#FEFEFE"/>
</svg>

<svg width="25" height="25" fill="none" xmlns="http://www.w3.org/2000/svg"><path d="M12.5 0C5.607 0 0 5.608 0 12.5S5.607 25 12.5 25 25 19.392 25 12.5 19.393 0 12.5 0zm0 23.958c-6.318 0-11.458-5.14-11.458-11.458 0-6.318 5.14-11.458 11.458-11.458 6.318 0 11.458 5.14 11.458 11.458 0 6.318-5.14 11.458-11.458 11.458z" fill="#FEFEFE"/><path d="M17.47 12.062l-7.292-4.687a.52.52 0 00-.803.437v9.375a.52.52 0 00.803.438l7.291-4.687a.522.522 0 000-.876zm-7.053 4.171V8.767l5.807 3.733-5.807 3.733z" fill="#FEFEFE"/></svg>
